src/assets/fleet-icons/units.svg

<svg width="20" height="20" viewBox="0 0 20 20" fill="none" xmlns="http://www.w3.org/2000/svg">
    <path
        d="M8.12501 3.95834V5.20834M16.0417 8.12501H14.7917M8.12501 14.7917V16.0417M5.20834 8.12501H3.95834M11.875 3.95834V5.20834M16.0417 11.875H14.7917M11.875 14.7917V16.0417M5.20834 11.875H3.95834M5.62501 7.29168C5.62501 6.3712 6.3712 5.62501 7.29168 5.62501H12.7083C13.6288 5.62501 14.375 6.3712 14.375 7.29168V12.7083C14.375 13.6288 13.6288 14.375 12.7083 14.375H7.29168C6.3712 14.375 5.62501 13.6288 5.62501 12.7083V7.29168Z"
        stroke="currentColor" stroke-linecap="round" stroke-linejoin="round" />
</svg>

<svg width="20" height="20" fill="none" xmlns="http://www.w3.org/2000/svg">
    <path
        d="M8.125 3.958v1.25m7.917 2.917h-1.25m-6.667 6.667v1.25M5.208 8.125h-1.25m7.917-4.167v1.25m4.167 6.667h-1.25m-2.917 2.917v1.25m-6.667-4.167h-1.25m1.667-4.583c0-.92.746-1.667 1.667-1.667h5.416c.92 0 1.667.746 1.667 1.667v5.416c0 .92-.746 1.667-1.667 1.667H7.292c-.92 0-1.667-.746-1.667-1.667V7.292Z"
        stroke="currentColor" stroke-linecap="round" stroke-linejoin="round" />
</svg>
